dist/assets/img/main/btn-arrow-mobile.svg

<svg width="117" height="113" viewBox="0 0 117 113" fill="none" xmlns="http://www.w3.org/2000/svg">
<path d="M113.872 100.815C113.715 101.345 113.159 101.647 112.63 101.491L103.997 98.9472C103.467 98.7911 103.164 98.235 103.32 97.7053C103.476 97.1755 104.032 96.8726 104.562 97.0288L112.236 99.2902L114.497 91.6165C114.653 91.0868 115.209 90.7839 115.739 90.94C116.269 91.0961 116.572 91.6521 116.416 92.1819L113.872 100.815ZM1.31253 10.7684C4.32783 11.7604 7.25205 12.7516 10.0898 13.7449L9.42907 15.6326C6.60406 14.6438 3.69179 13.6566 0.687467 12.6682L1.31253 10.7684ZM27.3819 20.2704C33.4358 22.749 39.0388 25.2811 44.2583 27.912L43.3581 29.6979C38.1915 27.0938 32.6367 24.5829 26.6241 22.1213L27.3819 20.2704ZM60.3501 37.1232C65.6954 40.6148 70.5935 44.3202 75.1621 48.3171L73.8452 49.8224C69.3498 45.8895 64.5266 42.2402 59.2564 38.7976L60.3501 37.1232ZM88.2205 61.5189C92.1337 66.0666 95.8443 70.9608 99.4627 76.2714L97.8099 77.3976C94.2279 72.1403 90.5625 67.3068 86.7045 62.8234L88.2205 61.5189ZM109.266 91.9781C110.769 94.5814 112.275 97.2715 113.791 100.054L112.034 101.011C110.526 98.2412 109.028 95.5657 107.534 92.9784L109.266 91.9781Z" fill="#0C4CD7"/>
</svg>

<svg width="117" height="113" viewBox="0 0 117 113" fill="none" xmlns="http://www.w3.org/2000/svg"><path d="M113.872 100.815a1 1 0 01-1.242.676l-8.633-2.544a1 1 0 11.565-1.918l7.674 2.261 2.261-7.674a1 1 0 011.919.566l-2.544 8.633zM1.312 10.768c3.016.992 5.94 1.984 8.778 2.977l-.66 1.888a489.885 489.885 0 00-8.743-2.965l.626-1.9zm26.07 9.502c6.054 2.479 11.657 5.011 16.876 7.642l-.9 1.786c-5.166-2.604-10.721-5.115-16.734-7.577l.758-1.85zM60.35 37.123c5.345 3.492 10.244 7.197 14.812 11.194l-1.317 1.505c-4.495-3.933-9.318-7.582-14.589-11.024l1.094-1.675zM88.22 61.52c3.914 4.548 7.624 9.442 11.243 14.752l-1.653 1.127c-3.582-5.258-7.248-10.091-11.106-14.575l1.517-1.304zm21.046 30.46a374.559 374.559 0 014.525 8.075l-1.757.957a367.012 367.012 0 00-4.5-8.033l1.732-1z" fill="#0C4CD7"/></svg>
